src/svg/bell.svg

<svg version="1.2" baseProfile="tiny" xmlns="http://www.w3.org/2000/svg" width="24" height="24" viewBox="0 0 24 24"><path d="M19.715 17.301c-.017-.018-1.717-1.854-1.73-6.32-.009-2.607-1.69-4.824-4.019-5.641l.034-.34c0-1.103-.896-2-2-2s-2 .897-2 2l.034.338c-2.336.816-4.019 3.036-4.019 5.646 0 4.462-1.711 6.296-1.721 6.306-.287.286-.374.716-.22 1.091s.521.619.926.619h3.143c.447 1.72 1.999 3 3.857 3s3.41-1.28 3.857-3h3.143c.4 0 .758-.243.915-.61s.076-.799-.2-1.089zm-7.715-10.301c2.189 0 3.978 1.789 3.984 3.987.002.728.046 1.396.118 2.013h-8.2c.071-.617.113-1.286.113-2.016.001-2.196 1.788-3.984 3.985-3.984zm0 13c-.737 0-1.375-.405-1.722-1h3.443c-.346.595-.984 1-1.721 1zm-5.186-3c.352-.736.705-1.731.938-3h8.502c.234 1.269.588 2.264.938 3h-10.378z"/></svg>

<?xml version="1.0" encoding="iso-8859-1"?>
<!-- Generator: Adobe Illustrator 16.2.1, SVG Export Plug-In . SVG Version: 6.00 Build 0)  -->
<svg version="1.2" baseProfile="tiny" xmlns="http://www.w3.org/2000/svg" xmlns:xlink="http://www.w3.org/1999/xlink" x="0px"
	 y="0px" width="24px" height="24px" viewBox="0 0 24 24" xml:space="preserve">
<g id="Layer_1">
	<path d="M19.715,17.301c-0.017-0.018-1.717-1.854-1.73-6.32c-0.009-2.607-1.69-4.824-4.019-5.641C13.984,5.229,14,5.117,14,5
		c0-1.103-0.896-2-2-2s-2,0.897-2,2c0,0.116,0.016,0.228,0.034,0.338c-2.336,0.816-4.019,3.036-4.019,5.646
		c0,4.462-1.711,6.296-1.721,6.306c-0.287,0.286-0.374,0.716-0.22,1.091S4.595,19,5,19h3.143c0.447,1.72,1.999,3,3.857,3
		s3.41-1.28,3.857-3H19c0.4,0,0.758-0.243,0.915-0.61S19.991,17.591,19.715,17.301z M12,7c2.189,0,3.978,1.789,3.984,3.987
		c0.002,0.728,0.046,1.396,0.118,2.013h-8.2c0.071-0.617,0.113-1.286,0.113-2.016C8.016,8.788,9.803,7,12,7z M12,20
		c-0.737,0-1.375-0.405-1.722-1h3.443C13.375,19.595,12.737,20,12,20z M6.814,17c0.352-0.736,0.705-1.731,0.938-3h8.502
		c0.234,1.269,0.588,2.264,0.938,3H6.814z"/>
</g>
<g id="nyt_x5F_exporter_x5F_info" display="none">
</g>
</svg>
